dist/assets/img/about/2.svg

<svg width="269" height="127" viewBox="0 0 269 127" fill="none" xmlns="http://www.w3.org/2000/svg">
<path d="M0.346824 29.9755C0.155278 28.1133 1.50958 26.4485 3.37174 26.2569L255.264 0.346841C257.126 0.155295 258.791 1.5096 258.982 3.37176L268.521 96.1034C268.712 97.9656 267.358 99.6304 265.496 99.822L13.6039 125.732C11.7418 125.924 10.0769 124.569 9.88538 122.707L0.346824 29.9755Z" fill="white"/>
<g clip-path="url(#clip0)">
<g filter="url(#filter0_d)">
<path d="M30.0541 60.1631C29.8343 60.1857 29.6379 60.0258 29.6153 59.8061L29.0043 53.8666C28.9817 53.6468 29.1415 53.4504 29.3613 53.4278L57.761 50.5065C57.9808 50.4839 58.1773 50.6437 58.1999 50.8635L58.8108 56.803C58.8334 57.0227 58.6736 57.2192 58.4538 57.2418L47.9034 58.327L50.6337 84.8703C50.6563 85.0901 50.4965 85.2865 50.2767 85.3091L43.7736 85.9781C43.5539 86.0007 43.3574 85.8409 43.3348 85.6211L40.6045 59.0778L30.0541 60.1631Z" fill="white"/>
<path d="M64.1154 64.9246C63.8956 64.9472 63.6992 64.7873 63.6766 64.5676L63.1646 59.5903C63.142 59.3705 63.3018 59.174 63.5215 59.1514L86.0822 56.8308C86.3019 56.8082 86.4984 56.968 86.521 57.1878L87.033 62.1651C87.0556 62.3848 86.8958 62.5813 86.676 62.6039L78.8019 63.4139L80.6909 81.7786C80.7135 81.9983 80.5537 82.1948 80.3339 82.2174L74.3174 82.8363C74.0977 82.8589 73.9012 82.6991 73.8786 82.4793L71.9896 64.1146L64.1154 64.9246Z" fill="white"/>
<path d="M30.0541 60.1631C29.8343 60.1857 29.6379 60.0258 29.6153 59.8061L29.0043 53.8666C28.9817 53.6468 29.1415 53.4504 29.3613 53.4278L57.761 50.5065C57.9808 50.4839 58.1773 50.6437 58.1999 50.8635L58.8108 56.803C58.8334 57.0227 58.6736 57.2192 58.4538 57.2418L47.9034 58.327L50.6337 84.8703C50.6563 85.0901 50.4965 85.2865 50.2767 85.3091L43.7736 85.9781C43.5539 86.0007 43.3574 85.8409 43.3348 85.6211L40.6045 59.0778L30.0541 60.1631Z" stroke="#333A4A" stroke-width="2"/>
<path d="M64.1154 64.9246C63.8956 64.9472 63.6992 64.7873 63.6766 64.5676L63.1646 59.5903C63.142 59.3705 63.3018 59.174 63.5215 59.1514L86.0822 56.8308C86.3019 56.8082 86.4984 56.968 86.521 57.1878L87.033 62.1651C87.0556 62.3848 86.8958 62.5813 86.676 62.6039L78.8019 63.4139L80.6909 81.7786C80.7135 81.9983 80.5537 82.1948 80.3339 82.2174L74.3174 82.8363C74.0977 82.8589 73.9012 82.6991 73.8786 82.4793L71.9896 64.1146L64.1154 64.9246Z" stroke="#333A4A" stroke-width="2"/>
</g>
</g>
<path d="M103.307 61.6371L103.049 59.1303L113.792 58.0252L114.05 60.532L110.021 60.9464L111.053 70.9735L108.367 71.2497L107.336 61.2226L103.307 61.6371ZM116.132 69.311C115.092 68.465 114.503 67.3675 114.364 66.0187C114.225 64.6698 114.579 63.4813 115.427 62.4532C116.285 61.412 117.406 60.8201 118.791 60.6777C120.199 60.5328 121.405 60.8792 122.408 61.717C123.411 62.5548 123.982 63.6541 124.122 65.0149L124.178 65.5521L117.015 66.2888C117.172 66.8758 117.493 67.3555 117.978 67.7279C118.462 68.1002 118.991 68.2569 119.564 68.198C120.197 68.1329 120.722 67.898 121.138 67.4932C121.301 67.3196 121.426 67.1258 121.513 66.9119L124.199 66.6356C124.058 67.2653 123.815 67.8331 123.469 68.3392C122.625 69.5117 121.397 70.1809 119.785 70.3467C118.4 70.4891 117.183 70.1439 116.132 69.311ZM116.948 64.7576L121.335 64.3064C121.191 63.8387 120.905 63.464 120.478 63.1822C120.061 62.8873 119.573 62.7686 119.012 62.8263C118.451 62.8841 117.99 63.0943 117.629 63.4571C117.268 63.82 117.041 64.2534 116.948 64.7576ZM125.947 69.4414L125.008 60.3096L127.515 60.0517L127.865 63.4538L128.939 63.3433L131.006 59.6926L133.782 59.4071L131.26 63.9188L134.989 68.5113L132.125 68.806L129.428 65.4643L128.086 65.6025L128.454 69.1836L125.947 69.4414ZM136.131 67.2539C135.091 66.4079 134.501 65.3104 134.363 63.9616C134.224 62.6127 134.578 61.4242 135.425 60.3961C136.283 59.3548 137.405 58.763 138.789 58.6206C140.449 58.4499 141.775 58.9166 142.77 60.0207C143.216 60.4934 143.564 61.0608 143.813 61.7228L141.217 61.9899C141.082 61.7383 140.915 61.5143 140.713 61.3178C140.211 60.887 139.643 60.7042 139.01 60.7692C138.378 60.8343 137.854 61.1415 137.44 61.6907C137.038 62.2387 136.878 62.9066 136.959 63.6945C137.04 64.4823 137.333 65.1036 137.838 65.5583C138.355 66.0118 138.93 66.206 139.563 66.1409C140.196 66.0758 140.714 65.7812 141.119 65.2571C141.276 65.0238 141.394 64.7703 141.475 64.4966L144.071 64.2296C143.975 64.9391 143.762 65.5642 143.432 66.1049C142.683 67.3882 141.467 68.1164 139.784 68.2895C138.399 68.432 137.182 68.0868 136.131 67.2539ZM144.07 60.5202L143.849 58.3715L152.444 57.4875L152.665 59.6361L149.621 59.9492L150.339 66.9324L147.832 67.1903L147.114 60.2071L144.07 60.5202Z" fill="#333A4A"/>
<path d="M3.57639 28.2464L255.468 2.33634L255.059 -1.64266L3.1671 24.2674L3.57639 28.2464ZM256.993 3.5764L266.531 96.3081L270.51 95.8988L260.972 3.16712L256.993 3.5764ZM265.291 97.8325L13.3993 123.743L13.8086 127.722L265.7 101.811L265.291 97.8325ZM11.8749 122.503L2.33633 29.7709L-1.64268 30.1801L7.89588 122.912L11.8749 122.503ZM13.3993 123.743C12.6359 123.821 11.9534 123.266 11.8749 122.503L7.89588 122.912C8.20045 125.873 10.8476 128.026 13.8086 127.722L13.3993 123.743ZM266.531 96.3081C266.61 97.0714 266.055 97.754 265.291 97.8325L265.7 101.811C268.661 101.507 270.815 98.8597 270.51 95.8988L266.531 96.3081ZM255.468 2.33634C256.232 2.25782 256.914 2.813 256.993 3.5764L260.972 3.16712C260.667 0.206193 258.02 -1.94723 255.059 -1.64266L255.468 2.33634ZM3.1671 24.2674C0.206166 24.572 -1.94725 27.2192 -1.64268 30.1801L2.33633 29.7709C2.2578 29.0075 2.813 28.325 3.57639 28.2464L3.1671 24.2674Z" fill="#333A4A"/>
<defs>
<filter id="filter0_d" x="28.0022" y="49.5043" width="62.0331" height="39.476" filterUnits="userSpaceOnUse" color-interpolation-filters="sRGB">
<feFlood flood-opacity="0" result="BackgroundImageFix"/>
<feColorMatrix in="SourceAlpha" type="matrix" values="0 0 0 0 0 0 0 0 0 0 0 0 0 0 0 0 0 0 127 0" result="hardAlpha"/>
<feOffset dx="2" dy="2"/>
<feColorMatrix type="matrix" values="0 0 0 0 0.2 0 0 0 0 0.227451 0 0 0 0 0.290196 0 0 0 1 0"/>
<feBlend mode="normal" in2="BackgroundImageFix" result="effect1_dropShadow"/>
<feBlend mode="normal" in="SourceGraphic" in2="effect1_dropShadow" result="shape"/>
</filter>
<clipPath id="clip0">
<rect width="65" height="65" fill="white" transform="translate(23.675 41.7608) rotate(-5.8729)"/>
</clipPath>
</defs>
</svg>

<svg width="269" height="127" viewBox="0 0 269 127" fill="none" xmlns="http://www.w3.org/2000/svg"><path d="M.347 29.976a3.39 3.39 0 013.025-3.72L255.264.347a3.389 3.389 0 013.718 3.026l9.539 92.731a3.39 3.39 0 01-3.025 3.719l-251.892 25.91a3.39 3.39 0 01-3.719-3.025L.347 29.976z" fill="#fff"/><g filter="url(#filter0_d)" clip-path="url(#clip0)"><path d="M30.054 60.163a.4.4 0 01-.439-.357l-.61-5.94a.4.4 0 01.356-.438l28.4-2.921a.4.4 0 01.439.357l.61 5.939a.4.4 0 01-.356.439l-10.55 1.085 2.73 26.543a.4.4 0 01-.357.44l-6.503.668a.4.4 0 01-.44-.357l-2.73-26.543-10.55 1.085zm34.061 4.762a.4.4 0 01-.438-.357l-.512-4.978a.4.4 0 01.357-.439l22.56-2.32a.4.4 0 01.439.357l.512 4.977a.4.4 0 01-.357.439l-7.874.81 1.889 18.365a.4.4 0 01-.357.438l-6.017.62a.4.4 0 01-.438-.358l-1.89-18.364-7.874.81z" fill="#fff"/><path d="M30.054 60.163a.4.4 0 01-.439-.357l-.61-5.94a.4.4 0 01.356-.438l28.4-2.921a.4.4 0 01.439.357l.61 5.939a.4.4 0 01-.356.439l-10.55 1.085 2.73 26.543a.4.4 0 01-.357.44l-6.503.668a.4.4 0 01-.44-.357l-2.73-26.543-10.55 1.085zm34.061 4.762a.4.4 0 01-.438-.357l-.512-4.978a.4.4 0 01.357-.439l22.56-2.32a.4.4 0 01.439.357l.512 4.977a.4.4 0 01-.357.439l-7.874.81 1.889 18.365a.4.4 0 01-.357.438l-6.017.62a.4.4 0 01-.438-.358l-1.89-18.364-7.874.81z" stroke="#333A4A" stroke-width="2"/></g><path d="M103.307 61.637l-.258-2.507 10.743-1.105.258 2.507-4.029.414 1.032 10.028-2.686.276-1.031-10.027-4.029.414zm12.825 7.674c-1.04-.846-1.629-1.944-1.768-3.292-.139-1.35.215-2.538 1.063-3.566.858-1.041 1.979-1.633 3.364-1.775 1.408-.145 2.614.201 3.617 1.039 1.003.838 1.574 1.937 1.714 3.298l.056.537-7.163.737c.157.587.478 1.067.963 1.439.484.372 1.013.529 1.586.47.633-.065 1.158-.3 1.574-.705.163-.173.288-.367.375-.581l2.686-.276a4.873 4.873 0 01-.73 1.703c-.844 1.173-2.072 1.842-3.684 2.008-1.385.142-2.602-.203-3.653-1.036zm.816-4.553l4.387-.452a2.035 2.035 0 00-.857-1.124c-.417-.295-.905-.413-1.466-.356-.561.058-1.022.268-1.383.631a2.428 2.428 0 00-.681 1.3zm8.999 4.683l-.939-9.131 2.507-.258.35 3.402 1.074-.11 2.067-3.651 2.776-.286-2.522 4.512 3.729 4.592-2.864.295-2.697-3.342-1.342.139.368 3.58-2.507.258zm10.184-2.187c-1.04-.846-1.63-1.944-1.768-3.292-.139-1.35.215-2.538 1.062-3.566.858-1.041 1.98-1.633 3.364-1.775 1.66-.171 2.986.296 3.981 1.4.446.472.794 1.04 1.043 1.702l-2.596.267a2.73 2.73 0 00-.504-.672c-.502-.431-1.07-.614-1.703-.549-.632.065-1.156.373-1.57.922-.402.548-.562 1.216-.481 2.003.081.788.374 1.41.879 1.864.517.454 1.092.648 1.725.583.633-.065 1.151-.36 1.556-.884a2.75 2.75 0 00.356-.76l2.596-.267c-.096.71-.309 1.334-.639 1.875-.749 1.283-1.965 2.011-3.648 2.184-1.385.143-2.602-.202-3.653-1.035zm7.939-6.734l-.221-2.149 8.595-.884.221 2.15-3.044.312.718 6.983-2.507.258-.718-6.983-3.044.313zM3.576 28.246l251.892-25.91-.409-3.979L3.167 24.267l.41 3.98zm253.417-24.67l9.538 92.732 3.979-.41-9.538-92.73-3.979.408zm8.298 94.257l-251.892 25.91.41 3.979L265.7 101.811l-.409-3.979zm-253.416 24.67L2.336 29.771l-3.979.41 9.539 92.731 3.979-.409zm1.524 1.24a1.39 1.39 0 01-1.524-1.24l-3.98.409a5.39 5.39 0 005.914 4.81l-.41-3.979zm253.132-27.435a1.389 1.389 0 01-1.24 1.524l.409 3.979a5.389 5.389 0 004.81-5.912l-3.979.41zM255.468 2.336a1.39 1.39 0 011.525 1.24l3.979-.409a5.39 5.39 0 00-5.913-4.81l.409 3.98zM3.168 24.267a5.39 5.39 0 00-4.81 5.913l3.978-.41a1.39 1.39 0 011.24-1.524l-.409-3.979z" fill="#333A4A"/><defs><clipPath id="clip0"><path fill="#fff" transform="rotate(-5.873 418.897 -209.89)" d="M0 0h65v65H0z"/></clipPath><filter id="filter0_d" x="28.002" y="49.504" width="62.033" height="39.476" filterUnits="userSpaceOnUse" color-interpolation-filters="sRGB"><feFlood flood-opacity="0" result="BackgroundImageFix"/><feColorMatrix in="SourceAlpha" values="0 0 0 0 0 0 0 0 0 0 0 0 0 0 0 0 0 0 127 0" result="hardAlpha"/><feOffset dx="2" dy="2"/><feColorMatrix values="0 0 0 0 0.2 0 0 0 0 0.227451 0 0 0 0 0.290196 0 0 0 1 0"/><feBlend in2="BackgroundImageFix" result="effect1_dropShadow"/><feBlend in="SourceGraphic" in2="effect1_dropShadow" result="shape"/></filter></defs></svg>
